X: 1009
T: Chudleigh Box
N: Pub: J. Walsh, London, 1748
Z: 2012 John Chambers <jc:trillian.mit.edu>
M: 2/4
L: 1/16
K: D
V: 1
|: [A2D2] (B/c/d) AGFE | Ddef e2e2 | [A2D2] (B/c/d) AGFE | Ddec d2D2 :|
|: efec fgfd | gfge a2a2 | agfe dcdA | BGFE D2D2 :|
V: 2 clef=bass middle=d
|: d4 c2A2 | d4 a2A2 | d4 c2A2 | d2A2 d4 :|
|: c2A2 d2A2 | e2A2 f4 | c'2a2 f4 | g2a2 d4 :|
%%begintext align
First Cu. foot it and cast off two Cu. .|
Lead up to the top & cast off :|
Hands round four with the Third Cu. .|.
Right and Left at top :|:
foot it Corners and turn :||
Lead outsides and turn :||:
%%endtext

%%sep 1 1 500
%%sep 1 1 500

